!!!OTL: ES WARN EINMAL ZWEI BAUERNSOEHN
!!!ARE: Europa, Mitteleuropa, Deutschland, Westfalen, Wittgenstein
!!!SCT: E0050B
!!!YEM: Copyright 1995, estate of Helmut Schaffrath.
**kern
*ICvox
*Ivox
*M3/4
*k[f#]
*G:
{8d
=1
8.g
16g
4.g
8a
=2
8.b
16b
4.b}
{8b
=3
8a
8b
4cc
4f#
=4
8.a
16g
4g
8r}
{8b
=5
4.dd
8b
8cc
8b
=6
4dd
4a
8r}
{8ee
=7
8ee
8ee
8dd
8cc
4b
=8
4a
4g
8r}
==
!!!AGN: erzaehlendes Volks - Lied, Sage, Mord, Ballade ?
!!!ONB: ESAC (Essen Associative Code) Database: ERK1
!!!AMT: simple triple
!!!AIN: vox
!!!EED: Helmut Schaffrath
!!!EEV: 1.0
*-
